X:63
T:Humours of Ballyloughlin
Z: id:dc-jig-52
M:6/8
L:1/8
K:D Mixolydian
A|A3 AGE|GED EDE|c3 cAd|dcA AGE|!
A3 AGE|GEG cGE|DED DFA|DED D2:|!
B|c3 cAB|cAG ABc|d3 ded|dAF DFA|!
c2A d2B|cAG FGE|DED DFA|DED D2:|!
e|f2d ged|f2d ged|cde ged|cde ged|!
f2d ged|f2d ged|cde gag|ed^c d2:|!
B|A3 ABG|F3 GED|E3 EFD|EFD EFG|!
A3 dAG|F3 GEA|DED DFA|DED D2:|!

